!!!COM: Beethoven, Ludwig van
!!!CDT: 1770///-1827///
!!!OTL: Piano Sonata No. 20 in G major
!!!ODT: 1795///-1796///
!!!OPS: 49
!!!ONM: 2
!!!OMV: 1
!!!OMD: Allegro ma non troppo
!!!AGN: Sonata
**kern	**kern	**dynam
*staff2	*staff1	*staff1
*Ipiano	*Ipiano	*Ipiano
*>[A,A,B,B]	*>[A,A,B,B]	*>[A,A,B,B]
*>norep[A,B]	*>norep[A,B]	*>norep[A,B]
*>A	*>A	*>A
*clefF4	*clefG2	*clefG2
*k[f#]	*k[f#]	*k[f#]
*G:	*G:	*G:
*M2/2	*M2/2	*M2/2
*MM120	*MM120	*MM120
=1-	=1-	=1-
2GG/ 2G/	2B/ 2d/ 2g/	f
2r	12d/L	.
.	12g/	.
.	12b/J	.
.	12dd\L	.
.	12cc\	.
.	12a\J	.
=2	=2	=2
4r	4g'/	.
(4B\	(4g/	p
4A\	4f#/	.
4G\)	4g/)	.
=3	=3	=3
4F#\	4.a/	.
4D\	.	.
.	8a/	.
4G\	4.b/	.
4Fn\	.	.
.	8b/	.
=4	=4	=4
4E\	4dd\	.
4F#\	4cc\	.
.	(bq/LL	.
.	ccq/JJ	.
8G\L	4b\)	.
8G\	.	.
8B\	4r	.
8d\J	.	.
=5	=5	=5
2G\ 2g\	2b\ 2dd\ 2gg\	f
2r	12dd\L	.
.	12gg\	.
.	12bb\J	.
.	12ddd\L	.
.	12ccc\	.
.	12aa\J	.
*clefG2	*	*
=6	=6	=6
4r	4gg\	.
8b\L	(4gg\	p
8dd\J	.	.
8a\L	4ff#\	.
8dd\	.	.
8g\	4gg\)	.
8dd\J	.	.
=7	=7	=7
8f#/L	4.aa\	.
8dd/	.	.
8d/	.	.
8dd/J	8aa\	.
8g/L	4.bb\	.
8dd/	.	.
8fn/	.	.
8dd/J	8bb\	.
=8	=8	=8
8e/L	4ddd\	.
8g/	.	.
8f#/	4ccc\	.
8a/J	.	.
.	(bbq/LL	.
.	cccq/JJ	.
4g/	(8bb\L)	.
.	8ccc\	.
4r	8ccc#\	.
.	(8ddd\J)	.
=9	=9	=9
4r	8ddd#\L	.
.	8eee\J)	.
4c/ 4e/ 4a/	8r	.
.	(8eee\	.
2r	8dddn\L	.
.	8ccc\	.
.	8bb\	.
.	8aa\J)	.
=10	=10	=10
4r	(8ccc#\L	.
.	8ddd\J)	.
4B/ 4d/ 4g/	8r	.
.	(8ddd\	.
2r	8cccn\L	.
.	8bb\	.
.	8aa\	.
.	8gg\J)	.
*clefF4	*	*
=11	=11	=11
4c\	(8ff#\L	.
.	8ee\	.
4r	8dd\	.
.	8cc\J	.
4d\	8b/L	.
.	8a/	.
4r	8g/	.
.	8f#/J)	.
=12	=12	=12
4G\	(4.g/	.
4r	.	.
.	8a/)	.
2r	(8b\L	.
.	8cc\	.
.	8cc#\	.
.	8dd\J)	.
=13	=13	=13
4r	(8dd#\L	p
.	8ee\J)	.
4C\ 4E\ 4A\	8r	.
.	(8ee\	.
2r	8ddn\L	.
.	8cc\	.
.	8b\	.
.	8a\J)	.
=14	=14	=14
4r	(8dd#\L	.
.	8ee\J)	.
4C#\ 4E\ 4A\	8r	.
.	8ee\	.
2r	(8ee\L	.
.	8cc#\	.
.	8a\	.
.	8g\J)	.
=15	=15	=15
12D\L	4f#/	f
12F#\	.	.
12A\J	.	.
12D\L	12aa\L	.
12F#\	12ff#\	.
12A\J	12dd\J	.
12D\L	4ccn\	.
12F#\	.	.
12A\J	.	.
12D\L	12aa\L	.
12F#\	12ff#\	.
12A\J	12cc\J	.
=16	=16	=16
12D\L	4b\	.
12G\	.	.
12B\J	.	.
12D\L	12gg\L	.
12G\	12dd\	.
12B\J	12b\J	.
12D\L	4g/	.
12G\	.	.
12B\J	.	.
12D\L	12dd\L	.
12G\	12b\	.
12B\J	12g\J	.
=17	=17	=17
12D\L	4f#/	.
12F#\	.	.
12A\J	.	.
12D\L	12aa\L	.
12F#\	12ff#\	.
12A\J	12dd\J	.
12D\L	4cc\	.
12F#\	.	.
12A\J	.	.
12D\L	12aa\L	.
12F#\	12ff#\	.
12A\J	12cc\J	.
=18	=18	=18
12D\L	4b\	.
12G\	.	.
12B\J	.	.
12D\L	12gg\L	.
12G\	12dd\	.
12B\J	12b\J	.
12D\L	4g/	.
12G\	.	.
12B\J	.	.
12D\L	12dd\L	.
12G\	12b\	.
12B\J	12g\J	.
=19	=19	=19
12D\L	4d/	.
12F#\	.	.
12A\J	.	.
12D\L	12dd\L	.
12G\	12b\	.
12B\J	12g\J	.
12D\L	4d/	.
12F#\	.	.
12A\J	.	.
12D\L	12dd\L	.
12G\	12b\	.
12B\J	12g\J	.
=20	=20	=20
4D\ 4F#\	4d/	.
4r	4r	.
2r	8r	.
.	8a/L	p
.	8a/	.
.	8a/J	.
*clefG2	*	*
=21	=21	=21
8f#/L	(4dd\	.
8a/	.	.
8g/	4cc#\	.
8a/J	.	.
8f#/L	4dd\	.
8a/	.	.
8c#/	4ee\)	.
8a/J	.	.
=22	=22	=22
8d/L	(8gg\L	.
8a/	8ff#\J)	.
8c#/	4ee\	.
8a/J	.	.
4A/	8r	.
.	8a/L	.
4r	8a/	.
.	8a/J	.
=23	=23	=23
8g/L	(4ee\	.
8a/	.	.
8f#/	4dd\	.
8a/J	.	.
8e/L	4cc#\ 4ee\	.
8a/	.	.
8d/	4dd\ 4ff#\)	.
8a/J	.	.
=24	=24	=24
8c#/L	8ee\ (8aa\L	.
8a/	8gg\J	.
8d/	4dd\ 4ff#\)	.
8a/J	.	.
4d/	8r	.
.	(8aa\L	.
4r	8gg\	.
.	8ff#\J)	.
=25	=25	=25
(2g/ 2b/	(8ff#^\L	.
.	8ee\)	.
.	8ee'\	.
.	8ee'\J	.
4f#/) 4a/	8dd'\L	.
.	(8aa\	.
4r	8gg\	.
.	8ff#\J)	.
=26	=26	=26
(2g/ 2b/	(8ff#^\L	.
.	8ee\)	.
.	8ee'\	.
.	8ee'\J	.
4f#/) 4a/	8dd'\L	.
.	(8aa\	.
4r	8gg\	.
.	8ff#\J)	.
=27	=27	=27
4r	(8ff#\L	.
.	8ee\J)	.
4g/	8r	.
.	8ee\	.
4r	(8ee\L	.
.	8dd\J)	.
4g#/	8r	.
.	8dd\	.
=28	=28	=28
4a/	(8dd\L	.
.	8cc#\	.
4A/	8b\	.
.	8a\J	.
2r	8g#\L	.
.	8a\	.
.	8b\	.
.	8cc#\J)	.
=29	=29	=29
8f#/L	(4dd\	.
8a/	.	.
8g/	4cc#\	.
8a/J	.	.
8f#/L	4dd\	.
8a/	.	.
8c#/	4ee\)	.
8a/J	.	.
=30	=30	=30
8d/L	8dd\ (8gg\L	.
8a/	8ff#\J	.
8A/	4cc#\ 4ee\)	.
8a/J	.	.
4A/	8r	.
.	8a/L	.
4r	8a/	.
.	8a/J	.
=31	=31	=31
8g/L	(4ee\	.
8a/	.	.
8f#/	4dd\	.
8a/J	.	.
8e/L	4cc#\ 4ee\	.
8a/	.	.
8d/	4dd\ 4ff#\)	.
8a/J	.	.
=32	=32	=32
8c#/L	8ee\ (8aa\L	.
8a/	8gg\J	.
8d/	4dd\ 4ff#\)	.
8a/J	.	.
4d/	8r	.
.	(8aa\L	.
4r	8gg\	.
.	8ff#\J)	.
=33	=33	=33
(2g/ 2b/	(8ff#^\L	.
.	8ee\)	.
.	8ee'\	.
.	8ee'\J	.
4f#/) 4a/	8dd\L	.
.	(8aa\	.
4r	8gg\	.
.	8ff#\J)	.
=34	=34	=34
(2g/ 2b/	(8ff#^\L	.
.	8ee\)	.
.	8ee'\	.
.	8ee'\J	.
4f#/) 4a/	8dd\L	.
.	(8aa\	.
4r	8gg\	.
.	8ff#\J)	.
*clefF4	*	*
=35	=35	=35
4r	(8ff#\L	.
.	8ee\	.
4G\	8gg\	.
.	8ee\J)	.
4A\	(8ee\L	.
.	8dd\)	.
4AA/	(8dd\	.
.	8cc#\J)	.
=36	=36	=36
.	(ddq/	.
4D\	12aa\L)	f
.	12gg\	.
.	12ff#\J	.
4r	12ee\L	.
.	12dd\	.
.	12cc#\J	.
2r	12b/L	.
.	12a/	.
.	12g/J	.
.	12f#/L	.
.	12e/	.
.	12d/J	.
=37	=37	=37
12E\L	4c#/	.
12G\	.	.
12A\J	.	.
12E\L	4c#/	.
12G\	.	.
12A\J	.	.
12E\L	4c#/	.
12G\	.	.
12A\J	.	.
12E\L	4c#/	.
12G\	.	.
12A\J	.	.
=38	=38	=38
4D\ 4F#\	12d/L	.
.	12e/	.
.	12f#/J	.
4r	12g/L	.
.	12a/	.
.	12b/J	.
2r	12cc#\L	.
.	12dd\	.
.	12ee\J	.
.	12ff#\L	.
.	12gg\	.
.	12aa\J	.
=39	=39	=39
12C#\L	4gg\	.
12E\	.	.
12A\J	.	.
12C#\L	4gg\	.
12E\	.	.
12A\J	.	.
12C#\L	4gg\	.
12E\	.	.
12A\J	.	.
12C#\L	4gg\	.
12E\	.	.
12A\J	.	.
=40	=40	=40
.	ff#q/	.
4D\	12aa\L	.
.	12gg\	.
.	12ff#\J	.
4r	12ee\L	.
.	12dd\	.
.	12cc#\J	.
2r	12b/L	.
.	12a/	.
.	12g/J	.
.	12f#/L	.
.	12e/	.
.	12d/J	.
=41	=41	=41
12D\L	4cn/	.
12F#\	.	.
12A\J	.	.
12D\L	4c/	.
12F#\	.	.
12A\J	.	.
12D\L	4c/	.
12F#\	.	.
12A\J	.	.
12D\L	4c/	.
12F#\	.	.
12A\J	.	.
=42	=42	=42
*^	*	*
4r	2GG\	12B/L	.
.	.	12e/	.
.	.	12g/J	.
4G/	.	12b/L	.
.	.	12g/	.
.	.	12e/J	.
4F#/	4AA\	4d/	.
.	.	(f#q/	.
4G/	4AA\	4e/)	.
*v	*v	*	*
=43	=43	=43
4D\ 4F#\	12d/L	.
.	12e/	.
.	12f#/J	.
4r	12g/L	.
.	12a/	.
.	12b/J	.
2r	12cc#\L	.
.	12dd\	.
.	12ee\J	.
.	12ff#\L	.
.	12gg\	.
.	12aa\J	.
*clefG2	*	*
=44	=44	=44
12r	1gg 1bb	.
12G/L	.	.
12A/J	.	.
12B/L	.	.
12c#/	.	.
12d/J	.	.
12e/L	.	.
12f#/	.	.
12g/J	.	.
12a/L	.	.
12b/	.	.
12cc#/J	.	.
=45	=45	=45
4dd'\	4ff#'\ 4aa'\	.
4g'/	4ee'\ 4gg'\	.
4a'/	4dd'\ 4ff#'\	.
4A'/	4cc#'\ 4ee'\	.
=46	=46	=46
1r	12aa\L	.
.	12gg\	.
.	12ff#\J	.
.	12ee\L	.
.	12dd\	.
.	12cc#\J	.
.	12b/L	.
.	12a/	.
.	12g/J	.
.	12f#/L	.
.	12e/	.
.	12d/J	.
*clefF4	*	*
=47	=47	=47
12r	1g 1b	.
(12GG/L	.	.
12AA/J)	.	.
12BB/L	.	.
12C#/	.	.
12D/J	.	.
12E\L	.	.
12F#\	.	.
12G\J	.	.
12A\L	.	.
12B\	.	.
12c#\J	.	.
=48	=48	=48
4d'\	4f#'/ 4a'/	.
4G'\	4e'/ 4g'/	.
4A'\	4d'/ 4f#'/	.
4AA'/	4c#'/ 4e'/	.
=49	=49	=49
12D\L	4d/	.
12F#\	.	.
12A\J	.	.
12D\L	12aa\L	.
12F#\	12ff#\	.
12A\J	12dd\J	.
12D\L	4cc#\	.
12G\	.	.
12A\J	.	.
12D\L	12gg\L	.
12G\	12ee\	.
12A\J	12cc#\J	.
=50	=50	=50
12D\L	4dd\	.
12F#\	.	.
12A\J	.	.
12D\L	12a/L	.
12F#\	12f#/	.
12A\J	12d/J	.
12D\L	4c#/	.
12G\	.	.
12A\J	.	.
12D\L	12g/L	.
12G\	12e/	.
12A\J	12c#/J	.
=51	=51	=51
12D\L	4d/	.
12F#\	.	.
12A\J	.	.
12D\L	12g/L	.
12G\	12e/	.
12A\J	12c#/J	.
12D\L	4d/	.
12F#\	.	.
12A\J	.	.
12D\L	12g/L	.
12G\	12e/	.
12A\J	12c#/J	.
=52	=52	=52
4D\ 4F#\	4d/	.
4DD\ 4D\	4F#/ 4A/ 4d/	.
4DD\ 4D\	4F#/ 4A/ 4d/	.
4r	4r	.
=53:|!|:	=53:|!|:	=53:|!|:
*>B	*>B	*>B
2D\ 2d\	2fn\ 2a\ [2dd\	f
2r	12dd\L]	.
.	12ffn\	p
.	12ee\J	.
.	12dd\L	.
.	12cc\	.
.	12b\J	.
=54	=54	=54
8r	4a/	.
8e\L	.	.
8d\	4g#/	.
8e\J	.	.
8c\L	4a/	.
8e\	.	.
8G#\	4b/	.
8e\J	.	.
=55	=55	=55
8A\L	4cc\	.
8e\	.	.
8B\	4dd\	.
8e\J	.	.
8c\L	4ee\	.
8e\	.	.
8B\	4dd\	.
8e\J	.	.
=56	=56	=56
.	(ccq/LL	.
.	eeq/JJ	.
12A\L	[2aa\)	f
12c\	.	.
12e\J	.	.
12a\L	.	.
12e\	.	.
12c\J	.	.
4A\	12aa\L]	.
.	12ccc\	p
.	12bb\J	.
4r	12aa\L	.
.	12gg\	.
.	12ff#\J	.
*clefG2	*	*
=57	=57	=57
8r	4ee\	.
8b/L	.	.
8a/	4dd#\	.
8b/J	.	.
8g/L	4ee\	.
8b/	.	.
8d#/	4ff#\	.
8b/J	.	.
=58	=58	=58
8e/L	4.gg\	.
8b/	.	.
8e/	.	.
8b/J	16ff#\LL	.
.	16gg\JJ	.
8cn/L	8aa\L	.
8a#/	8gg\	.
8c/	8ff#\	.
8a#/J	8ee\J	.
=59	=59	=59
8B/L	4dd#\	.
8b/	.	.
8b/	8r	.
8b/J	8gg\ (8bb\	.
8b/L	4ff#'\ 4aa'\)	.
8b/	.	.
8b/	8r	.
8b/J	8dd#\ (8ff#\	.
=60	=60	=60
8b/L	4ee'\ 4gg'\)	.
8b/	.	.
8b/	8r	.
8b/J	8ee\ (8gg\	.
8b/L	4dd#'\ 4ff#'\)	.
8b/	.	.
8b/	4ee\ 4gg\	.
8b/J	.	.
=61	=61	=61
8B/L	4dd#\ 4ff#\	.
8b/	.	.
8b/	8r	.
8b/J	8gg\ (8bb\	.
8b/L	4ff#'\ 4aa'\)	.
8b/	.	.
8b/	8r	.
8b/J	8dd#\ (8ff#\	.
=62	=62	=62
8b/L	4ee'\ 4gg'\)	.
8b/	.	.
8b/	8r	.
8b/J	8ee\ (8gg\	.
8b/L	4dd#'\ 4ff#'\)	.
8b/	.	.
8b/	4ee\ 4gg\	.
8b/J	.	.
=63	=63	=63
(8b/L	4dd#\ 4ff#\	.
8a#/	.	.
8b/	4r	.
8a#/J	.	.
8b/L	2r	.
8an/	.	.
8g/	.	.
8f#/J)	.	.
*clefF4	*	*
=64	=64	=64
(8e\L	4ee\ 4gg\	.
8d#\	.	.
8e\	4r	.
8d#\J	.	.
8e\L	2r	.
8dn\	.	.
8c\	.	.
8B\J)	.	.
=65	=65	=65
(8A\L	(8ccc\L	.
8G#\	8bb\	.
8A\	8ccc\	.
8G#\J	8bb\J	.
8A\L	8ccc\L	.
8Gn\	8bb\	.
8F#\	8aa\	.
8E\J)	8gg\J)	.
=66	=66	=66
*^	*	*
2r	1D	(8ff#\L	.
.	.	8ee\	.
.	.	8dd\	.
.	.	8cc\J	.
2c/	.	8b/L	.
.	.	8a/	.
.	.	8g/	.
.	.	8f#/J)	.
*v	*v	*	*
=67	=67	=67
2GG/ 2G/	2B/ 2d/ 2g/	f
2r	12d/L	.
.	12g/	.
.	12b/J	.
.	12dd\L	.
.	12cc\	.
.	12a\J	.
=68	=68	=68
4r	4g'/	.
(4B\	(4g/	p
4A\	4f#/	.
4G\)	4g/)	.
=69	=69	=69
4F#\	4.a/	.
4D\	.	.
.	8a/	.
4G\	4.b/	.
4Fn\	.	.
.	8b/	.
=70	=70	=70
4E\	4dd\	.
4F#\	4cc\	.
.	(bq/LL	.
.	ccq/JJ	.
8G\L	4b\)	.
8G\	.	.
8B\	4r	.
8d\J	.	.
=71	=71	=71
2G\ 2g\	2b\ 2dd\ 2gg\	f
2r	12dd\L	.
.	12gg\	.
.	12bb\J	.
.	12ddd\L	.
.	12ccc\	.
.	12aa\J	.
*clefG2	*	*
=72	=72	=72
8r	4gg'\	.
8dd\L	.	.
8b\	(4gg\	p
8dd\J	.	.
8a\L	4ff#\	.
8dd\	.	.
8g\	4gg\)	.
8dd\J	.	.
=73	=73	=73
8f#/L	4aa\	.
8dd/	.	.
8d/	8r	.
8dd/J	8aa\	.
8g/L	4bb\	.
8dd/	.	.
8fn/	8r	.
8dd/J	8bb\	.
=74	=74	=74
4e/	8ccc\L	.
.	8gg\	.
4fn/	8aa\	.
.	8ffn\J	.
4g/	8ee\L	.
.	8gg\	.
4G/	8ff\	.
.	8dd\J	.
=75	=75	=75
.	(ccq/	.
4c/	12gg\L)	.
.	12ffn\	.
.	12ee\J	.
4r	12dd\L	.
.	12cc\	.
.	12b\J	.
2r	12a/L	.
.	12g/	.
.	12fn/J	.
.	12e/L	.
.	12d/	.
.	12c/J	.
*clefF4	*	*
=76	=76	=76
12D\L	4B/	.
12Fn\	.	.
12G\J	.	.
12D\L	4B/	.
12F\	.	.
12G\J	.	.
12D\L	4B/	.
12F\	.	.
12G\J	.	.
12D\L	4B/	.
12F\	.	.
12G\J	.	.
=77	=77	=77
4C/	12c/L	.
.	12d/	.
.	12e/J	.
4r	12fn/L	.
.	12g/	.
.	12a/J	.
2r	12b\L	.
.	12cc\	.
.	12dd\J	.
.	12ee\L	.
.	12ffn\	.
.	12gg\J	.
=78	=78	=78
12BB\L	4ffn\	.
12D\	.	.
12G\J	.	.
12BB\L	4ff\	.
12D\	.	.
12G\J	.	.
12BB\L	4ff\	.
12D\	.	.
12G\J	.	.
12BB\L	4ff\	.
12D\	.	.
12G\J	.	.
=79	=79	=79
4C/	12ee\L	.
.	12dd\	.
.	12cc\J	.
4r	12b/L	.
.	12a/	.
.	12g/J	.
2r	12fn/L	.
.	12e/	.
.	12d/J	.
.	12c/L	.
.	12B/	.
.	12A/J	.
=80	=80	=80
12BB\L	4G#/	.
12D\	.	.
12E\J	.	.
12BB\L	4G#/	.
12D\	.	.
12E\J	.	.
12BB\L	4G#/	.
12D\	.	.
12E\J	.	.
12BB\L	4G#/	.
12D\	.	.
12E\J	.	.
=81	=81	=81
12C\L	4A/	.
12E\	.	.
12A\J	.	.
12C\L	2a/	.
12E\	.	.
12A\J	.	.
12C#\L	.	.
12E\	.	.
12A\J	.	.
12C#\L	4gn/	.
12E\	.	.
12A\J	.	.
=82	=82	=82
12D\L	4f#/	f
12F#\	.	.
12A\J	.	.
12D\L	12aa\L	.
12F#\	12ff#\	.
12A\J	12dd\J	.
12D\L	4cc\	.
12F#\	.	.
12A\J	.	.
12D\L	12aa\L	.
12F#\	12ff#\	.
12A\J	12cc\J	.
=83	=83	=83
12D\L	4b\	.
12G\	.	.
12B\J	.	.
12D\L	12gg\L	.
12G\	12dd\	.
12B\J	12b\J	.
12D\L	4g/	.
12G\	.	.
12B\J	.	.
12D\L	12dd\L	.
12G\	12b\	.
12B\J	12g\J	.
=84	=84	=84
12D\L	4f#/	.
12F#\	.	.
12A\J	.	.
12D\L	12aa\L	.
12F#\	12ff#\	.
12A\J	12dd\J	.
12D\L	4cc\	.
12F#\	.	.
12A\J	.	.
12D\L	12aa\L	.
12F#\	12ff#\	.
12A\J	12cc\J	.
=85	=85	=85
12D\L	4b\	.
12G\	.	.
12B\J	.	.
12D\L	12gg\L	.
12G\	12dd\	.
12B\J	12b\J	.
12D\L	4g/	.
12G\	.	.
12B\J	.	.
12D\L	12dd\L	.
12G\	12b\	.
12B\J	12g\J	.
=86	=86	=86
12D\L	4d/	.
12F#\	.	.
12A\J	.	.
12D\L	12dd\L	.
12G\	12b\	.
12B\J	12g\J	.
12D\L	4d/	.
12F#\	.	.
12A\J	.	.
12D\L	12dd\L	.
12G\	12b\	.
12B\J	12g\J	.
=87	=87	=87
4D\ 4F#\	4d/	.
4r	4r	.
2r	8r	.
.	8d/L	p
.	8d/	.
.	8d/J	.
=88	=88	=88
8B\L	(4g/	.
8d\	.	.
8c\	4f#/	.
8d\J	.	.
8B\L	4g/	.
8d\	.	.
8F#\	4a/)	.
8d\J	.	.
=89	=89	=89
8G\L	(8cc\L	.
8d\	8b\J)	.
8F#\	4a/	.
8d\J	.	.
4D\	8r	.
.	8d/L	.
4r	8d/	.
.	8d/J	.
=90	=90	=90
8c\L	(4a/	.
8d\	.	.
8B\	4g/	.
8d\J	.	.
8A\L	4f#/ 4a/	.
8d\	.	.
8G\	4g/) 4b/	.
8d\J	.	.
=91	=91	=91
8F#\L	(8a/ 8dd/L	.
8d\	8cc/J	.
8G\	4g/) 4b/	.
8d\J	.	.
8G\	8r	.
8r	(8dd\L	.
4r	8cc\	.
.	8b\J)	.
=92	=92	=92
2c\ (2e\	(8b/L	.
.	8a/)	.
.	8a'/	.
.	8a'/J	.
4B\ 4d\)	(8g/L	.
.	8dd/	.
4r	8cc/	.
.	8b/J)	.
=93	=93	=93
2c\ (2e\	(8b/L	.
.	8a/)	.
.	8a'/	.
.	8a'/J	.
4B\ 4d\)	(8g/L	.
.	8dd/	.
4r	8cc/	.
.	8b/J)	.
=94	=94	=94
4r	(8b/L	.
.	8a/J)	.
4c\ 4e\	8r	.
.	8a/	.
4r	(8a/L	.
.	8g/J)	.
4c#\ 4e\	8r	.
.	8g/	.
=95	=95	=95
4d\	8f#'/L	.
.	8g'/	.
4r	8a'/	.
.	8b'/J	.
2r	8ccn'\L	.
.	8dd'\	.
.	8ee'\	.
.	8ff#'\J	.
*clefG2	*	*
=96	=96	=96
8b\L	(4gg\	.
8dd\	.	.
8cc\	4ff#\	.
8dd\J	.	.
8b\L	4gg\	.
8dd\	.	.
8f#\	4aa\)	.
8dd\J	.	.
=97	=97	=97
8g\L	(8ccc\L	.
8dd\	8bb\J)	.
8f#\	4aa\	.
8dd\J	.	.
4d/	8r	.
.	8dd\L	.
4r	8dd\	.
.	8dd\J	.
=98	=98	=98
8cc\L	(4aa\	.
8dd\	.	.
8b\	4gg\	.
8dd\J	.	.
8a\L	4ff#\ 4aa\	.
8dd\	.	.
8g\	4gg\ 4bb\)	.
8dd\J	.	.
=99	=99	=99
8f#\L	8aa\ (8ddd\L	.
8dd\	8ccc\J	.
8g\	4gg\ 4bb\)	.
8dd\J	.	.
8g/	8r	.
8r	(8ddd\L	.
4r	8ccc\	.
.	8bb\J)	.
=100	=100	=100
*^	*	*
(4ee/	2cc\	(8bb\L	.
.	.	8aa\)	.
4ff#/	.	8aa'\	.
.	.	8aa'\J	.
4dd/)	4b\	8gg\L	.
.	.	(8ddd\	.
4r	4r	8ccc\	.
.	.	8bb\J)	.
=101	=101	=101	=101
(4ee/	2cc\	(8bb\L	.
.	.	8aa\)	.
4ff#/	.	8aa'\	.
.	.	8aa'\J	.
4dd/)	4b\	8gg'\L	.
.	.	(8ddd\	.
4r	4r	8ccc\	.
.	.	8bb\J)	.
*v	*v	*	*
=102	=102	=102
4r	(8bb\L	.
.	8aa\	.
4cc\	8ccc\	.
.	8aa\J)	.
4dd\	(8aa\L	.
.	8gg\)	.
4d/	(8gg\	.
.	8ff#\J)	.
=103	=103	=103
.	(ggq/	.
4g/	12ddd\L)	f
.	12ccc\	.
.	12bb\J	.
4r	12aa\L	.
.	12gg\	.
.	12ff#\J	.
2r	12ee\L	.
.	12dd\	.
.	12cc\J	.
.	12b/L	.
.	12a/	.
.	12g/J	.
*clefF4	*	*
=104	=104	=104
12A\L	4f#/	.
12c\	.	.
12d\J	.	.
12A\L	4f#/	.
12c\	.	.
12d\J	.	.
12A\L	4f#/	.
12c\	.	.
12d\J	.	.
12A\L	4f#/	.
12c\	.	.
12d\J	.	.
=105	=105	=105
4G\ 4B\	12g/L	.
.	12a/	.
.	12b/J	.
4r	12cc\L	.
.	12dd\	.
.	12ee\J	.
2r	12ff#\L	.
.	12gg\	.
.	12aa\J	.
.	12bb\L	.
.	12ccc\	.
.	12ddd\J	.
=106	=106	=106
12F#\L	4ccc\	.
12A\	.	.
12d\J	.	.
12F#\L	4ccc\	.
12A\	.	.
12d\J	.	.
12F#\L	4ccc\	.
12A\	.	.
12d\J	.	.
12F#\L	4ccc\	.
12A\	.	.
12d\J	.	.
=107	=107	=107
.	(bbq/	.
4G\ 4B\	12ddd\L)	.
.	12ccc\	.
.	12bb\J	.
4r	12aa\L	.
.	12gg\	.
.	12ff#\J	.
2r	12ee\L	.
.	12dd\	.
.	12cc\J	.
.	12b/L	.
.	12a/	.
.	12g/J	.
=108	=108	=108
12BB\L	4fn/	.
12D\	.	.
12G\J	.	.
12BB\L	4f/	.
12D\	.	.
12G\J	.	.
12BB\L	4f/	.
12D\	.	.
12G#\J	.	.
12BB\L	4f/	.
12D\	.	.
12G#\J	.	.
=109	=109	=109
12C\L	12e/L	.
12E\	12a/	.
12A\J	12cc/J	.
12C\L	12ee/L	.
12E\	12cc/	.
12A\J	12a/J	.
12D\L	4g/	.
12G\	.	.
12B\J	.	.
12D\L	4a/	.
12F#\	.	.
12c\J	.	.
=110	=110	=110
4G\ 4B\	12g/L	.
.	12a/	.
.	12b/J	.
4r	12cc\L	.
.	12dd\	.
.	12ee\J	.
2r	12ff#\L	.
.	12gg\	.
.	12aa\J	.
.	12bb\L	.
.	12ccc\	.
.	12ddd\J	.
*clefG2	*	*
=111	=111	=111
12r	1ccc 1eee	.
12c/L	.	.
12d/J	.	.
12e/L	.	.
12f#/	.	.
12g/J	.	.
12a\L	.	.
12b\	.	.
12cc\J	.	.
12dd\L	.	.
12ee\	.	.
12ff#\J	.	.
=112	=112	=112
4gg'\	4bb\ 4ddd\	.
4cc'\	4aa'\ 4ccc'\	.
4dd'\	4gg'\ 4bb'\	.
4d'/	4ff#'\ 4aa'\	.
=113	=113	=113
1r	12ddd\L	.
.	12ccc\	.
.	12bb\J	.
.	12aa\L	.
.	12gg\	.
.	12ff#\J	.
.	12ee\L	.
.	12dd\	.
.	12cc\J	.
.	12b/L	.
.	12a/	.
.	12g/J	.
*clefF4	*	*
=114	=114	=114
12r	1cc 1ee	.
12C\L	.	.
12D\J	.	.
12E\L	.	.
12F#\	.	.
12G\J	.	.
12A\L	.	.
12B\	.	.
12c\J	.	.
12d\L	.	.
12e\	.	.
12f#\J	.	.
=115	=115	=115
4g'\	4b'\ 4dd'\	.
4c'\	4a'\ 4cc'\	.
4d'\	4g'/ 4b'/	.
4D'\	4f#'/ 4a'/	.
=116	=116	=116
12GG/L	4g/	.
12BB/	.	.
12D/J	.	.
12GG/L	12ddd\L	.
12BB/	12bb\	.
12D/J	12gg\J	.
12GG/L	4ff#\	.
12C/	.	.
12D/J	.	.
12GG/L	12ccc\L	.
12C/	12aa\	.
12D/J	12ff#\J	.
=117	=117	=117
12GG/L	4gg\	.
12BB/	.	.
12D/J	.	.
12GG/L	12dd\L	.
12BB/	12b\	.
12D/J	12g\J	.
12GG/L	4f#/	.
12C/	.	.
12D/J	.	.
12GG/L	12cc\L	.
12C/	12a\	.
12D/J	12f#\J	.
=118	=118	=118
12GG/L	4g/	.
12BB/	.	.
12D/J	.	.
12GG/L	12ddd\L	.
12BB/	12bb\	.
12D/J	12gg\J	.
12GG/L	4ff#\	.
12C/	.	.
12D/J	.	.
12GG/L	12ccc\L	.
12C/	12aa\	.
12D/J	12ff#\J	.
=119	=119	=119
12GG/L	4gg\	.
12BB/	.	.
12D/J	.	.
12GG/L	12dd\L	.
12BB/	12b\	.
12D/J	12g\J	.
12GG/L	4f#/	.
12C/	.	.
12D/J	.	.
12GG/L	12cc/L	.
12C/	12a/	.
12D/J	12f#/J	.
=120	=120	=120
12GG/L	4g/	.
12BB/	.	.
12D/J	.	.
12GG/L	12cc/L	.
12C/	12a/	.
12D/J	12f#/J	.
12GG/L	4g/	.
12BB/	.	.
12D/J	.	.
12GG/L	12cc/L	.
12C/	12a/	.
12D/J	12f#/J	.
=121	=121	=121
4GG/	4g/	.
4r	4r	.
4DD/ 4D/	4a\ 4cc\ 4dd\ 4ff#\	.
4r	4r	.
=122	=122	=122
4GGG/ 4GG/	4b\ 4dd\ 4gg\	.
4r	4r	.
2r	2r	.
==	==	==
*-	*-	*-
!!!ENC: Craig Stuart Sapp
!!!END: 2007/11/27/
